X: 38644
T: Stormy Night, The
R: jig
M: 6/8
K: Cmajor
GEG cde|fdd edc|dBG cGE|FEF DEF|
GEG cde|fdd edc|BGG ege|1 fdB cBA:|2 fdB c2G||
ceg gec|AGE GAc|fdd edc|dge fed|
ceg gec|AGE GAc|fdc Bcd|1 dcB c2G:|2 dcB cGF||
~E3 GEG|cBc dcB|cGF EFG|AFD DEF|
GEG cBc|d2c dge|fdc Bcd|1 dcB cGF:|2 dcB c2d||
ege ceg|afd gec|f2 d edc|dge fed|
c2G GEG|~F3 GAc|fdc Bcd|1 dcB c2d:|2 dcB c3||

